Yaru++/apps/16/stacer.svg

<svg height="16" viewBox="0 0 16 16" width="16" xmlns="http://www.w3.org/2000/svg"><path d="m8.7792969 1.9980469c-.051556-.0055494-.1028131.0098601-.1425781.0449219-.0397651.0350898-.0633921.085636-.0683594.140625l-.2265625 2.4863281c-.010353.1144062.0690353.2174449.1757812.2285156.6183579.0642099 1.2136499.2429923 1.7714839.53125.026537.0137332.056997.0195312.085938.0195313.021595 0 .041689-.0039553.0625-.0117188.048602-.0181895.088975-.0557489.111328-.1054688l1.011719-2.25c.046615-.1035317.006784-.2274556-.089844-.2773437-.847327-.4377817-1.7533594-.7091627-2.6914061-.8066406zm-1.8632813.0371093c-.9335499.1357348-1.828228.4449011-2.6601562.9179688-.0947197.0538679-.1302746.1796521-.0800782.28125l1.0917969 2.2070312c.0348761.070488.1023058.1093751.171875.109375.0306931 0 .0608762-.0069576.0898438-.0234374.5480305-.3115762 1.1372292-.5141095 1.7519531-.6035157.1062492-.0154429.180421-.1204452.1660156-.234375l-.3125-2.4765625c-.0144053-.1139017-.1127622-.1930651-.21875-.1777344zm5.9863284 1.796875c-.051216.0056895-.098389.0333467-.13086.0761719l-1.470703 1.9375c-.032471.0428533-.046323.0974389-.041015.1523438.005255.0549049.030338.1057594.070312.140625.48288.4209375.888336.922558 1.207031 1.4941406.036393.0651908.101877.1015625.167969.1015625.033909 0 .06842-.0092856.09961-.0292969l2-1.28125c.044157-.0283353.075289-.0733935.08789-.1269531.012549-.0535596.004973-.1107814-.021484-.1582031-.481886-.8642126-1.096362-1.6254218-1.826172-2.2617188-.039974-.0348095-.091153-.0504432-.142578-.0449219zm-10.0410159.2070313c-.0516344-.0035314-.101958.0143461-.140625.0507813-.7068553.6660896-1.2937579 1.4508255-1.7441406 2.3339843-.02467994.0484587-.03010878.1072133-.015625.1601563.01448378.052971.0465939.0965894.0917969.1230468l2.0449218 1.1992188c.0295689.0173487.0622465.0253906.09375.0253906.0686803 0 .1346537-.0402043.1699219-.109375.2976756-.5837463.6867115-1.1023563 1.1542969-1.5429687.0387454-.0363791.0611851-.087449.0644531-.1425781.0033203-.0550731-.0128878-.1108919-.046875-.1523438l-1.5390625-1.875c-.0339872-.0414519-.0813872-.0667531-.1328125-.0703125zm12.5312499 3.7910156-2.224609.7460938c-.102354.0343611-.159006.1520491-.126953.2617187.159583.5461341.240234 1.1164148.240234 1.6953124 0 .08523-.001833.172015-.005859.265625-.002406.055129.016062.109611.050781.150391.034693.040807.08334.065837.134766.068359l2.328124.115234c.003085.000141.00478 0 .007813 0 .103112 0 .188497-.087671.193359-.199218.005987-.138874.009766-.269869.009766-.400391-.000052-.8748347-.123089-1.7380681-.365234-2.5664061-.032105-.1097257-.139939-.171164-.242188-.1367188zm-10.7792968.2402344c-.0422389.0052621-.0828942.0253397-.1152343.0585937-.0647326.0664521-.0793058.1711618-.0371094.2558594l1.7207031 3.4570314c-.0063268.066592-.0097656.1353-.0097656.203125 0 .521526.1892265 1.010155.5332031 1.378906.3440028.368779.8006218.572266 1.2871094.572266s.9450859-.203543 1.2890625-.572266c.3440028-.368751.5332031-.85738.5332031-1.378906 0-.521527-.1892265-1.012108-.5332031-1.38086-.3435142-.368255-.8013802-.57172-1.2871094-.572265h-.0019531c-.0328398.000044-.0670704.000084-.0996094.001953l-3.1542969-1.9941406c-.0386016-.0244536-.082761-.034559-.125-.0292969zm-4.09570308.0664063c-.04969974-.0144059-.1037574-.0079353-.1484375.0195312-.04468009.0274665-.0763273.0736738-.08984374.1269531-.18481194.7306639-.27929688 1.4873854-.27929688 2.2499999 0 .130522.00372636.261517.00976563.400391.00483664.111575.09019515.199219.19335937.199218.0030327 0 .00673292.000169.00976562 0l2.32617188-.115234c.0514252-.002522.1001248-.02758.1347656-.068359.0346931-.04078.0531865-.095262.0507813-.150391-.0040523-.093638-.0058594-.180423-.0058594-.265625 0-.505046.0616581-1.0044598.1835938-1.486328.0280002-.1109309-.0332408-.2257303-.1367188-.2558594z" fill="#808080"/></svg>

<svg xmlns="http://www.w3.org/2000/svg" width="16" height="16" version="1.1" viewBox="0 0 16 16">
 <path fill="#808080" d="M 8.7792969 1.9980469 C 8.7277409 1.9924975 8.6764838 2.007907 8.6367188 2.0429688 C 8.5969537 2.0780586 8.5733267 2.1286048 8.5683594 2.1835938 L 8.3417969 4.6699219 C 8.3314439 4.7843281 8.4108322 4.8873668 8.5175781 4.8984375 C 9.135936 4.9626474 9.731228 5.1414298 10.289062 5.4296875 C 10.315599 5.4434207 10.346059 5.4492187 10.375 5.4492188 C 10.396595 5.4492188 10.416689 5.4452635 10.4375 5.4375 C 10.486102 5.4193105 10.526475 5.3817511 10.548828 5.3320312 L 11.560547 3.0820312 C 11.607162 2.9784995 11.567331 2.8545756 11.470703 2.8046875 C 10.623376 2.3669058 9.7173436 2.0955248 8.7792969 1.9980469 z M 6.9160156 2.0351562 C 5.9824657 2.170891 5.0877876 2.4800573 4.2558594 2.953125 C 4.1611397 3.0069929 4.1255848 3.1327771 4.1757812 3.234375 L 5.2675781 5.4414062 C 5.3024542 5.5118942 5.3698839 5.5507813 5.4394531 5.5507812 C 5.4701462 5.5507812 5.5003293 5.5438236 5.5292969 5.5273438 C 6.0773274 5.2157676 6.6665261 5.0132343 7.28125 4.9238281 C 7.3874992 4.9083852 7.461671 4.8033829 7.4472656 4.6894531 L 7.1347656 2.2128906 C 7.1203603 2.0989889 7.0220034 2.0198255 6.9160156 2.0351562 z M 12.902344 3.8320312 C 12.851128 3.8377207 12.803955 3.8653779 12.771484 3.9082031 L 11.300781 5.8457031 C 11.26831 5.8885564 11.254458 5.943142 11.259766 5.9980469 C 11.265021 6.0529518 11.290104 6.1038063 11.330078 6.1386719 C 11.812958 6.5596094 12.218414 7.0612299 12.537109 7.6328125 C 12.573502 7.6980033 12.638986 7.734375 12.705078 7.734375 C 12.738987 7.734375 12.773498 7.7250894 12.804688 7.7050781 L 14.804688 6.4238281 C 14.848845 6.3954928 14.879977 6.3504346 14.892578 6.296875 C 14.905127 6.2433154 14.897551 6.1860936 14.871094 6.1386719 C 14.389208 5.2744593 13.774732 4.5132501 13.044922 3.8769531 C 13.004948 3.8421436 12.953769 3.8265099 12.902344 3.8320312 z M 2.8613281 4.0390625 C 2.8096937 4.0355311 2.7593701 4.0534086 2.7207031 4.0898438 C 2.0138478 4.7559334 1.4269452 5.5406693 0.9765625 6.4238281 C 0.95188256 6.4722868 0.94645372 6.5310414 0.9609375 6.5839844 C 0.97542128 6.6369554 1.0075314 6.6805738 1.0527344 6.7070312 L 3.0976562 7.90625 C 3.1272251 7.9235987 3.1599027 7.9316406 3.1914062 7.9316406 C 3.2600865 7.9316406 3.3260599 7.8914363 3.3613281 7.8222656 C 3.6590037 7.2385193 4.0480396 6.7199093 4.515625 6.2792969 C 4.5543704 6.2429178 4.5768101 6.1918479 4.5800781 6.1367188 C 4.5833984 6.0816457 4.5671903 6.0258269 4.5332031 5.984375 L 2.9941406 4.109375 C 2.9601534 4.0679231 2.9127534 4.0426219 2.8613281 4.0390625 z M 15.392578 7.8300781 L 13.167969 8.5761719 C 13.065615 8.610533 13.008963 8.728221 13.041016 8.8378906 C 13.200599 9.3840247 13.28125 9.9543054 13.28125 10.533203 C 13.28125 10.618433 13.279417 10.705218 13.275391 10.798828 C 13.272985 10.853957 13.291453 10.908439 13.326172 10.949219 C 13.360865 10.990026 13.409512 11.015056 13.460938 11.017578 L 15.789062 11.132812 C 15.792147 11.132953 15.793842 11.132812 15.796875 11.132812 C 15.899987 11.132812 15.985372 11.045141 15.990234 10.933594 C 15.996221 10.79472 16 10.663725 16 10.533203 C 15.999948 9.6583683 15.876911 8.7951349 15.634766 7.9667969 C 15.602661 7.8570712 15.494827 7.7956329 15.392578 7.8300781 z M 4.6132812 8.0703125 C 4.5710423 8.0755746 4.530387 8.0956522 4.4980469 8.1289062 C 4.4333143 8.1953583 4.4187411 8.300068 4.4609375 8.3847656 L 6.1816406 11.841797 C 6.1753138 11.908389 6.171875 11.977097 6.171875 12.044922 C 6.171875 12.566448 6.3611015 13.055077 6.7050781 13.423828 C 7.0490809 13.792607 7.5056999 13.996094 7.9921875 13.996094 C 8.4786751 13.996094 8.9372734 13.792551 9.28125 13.423828 C 9.6252528 13.055077 9.8144531 12.566448 9.8144531 12.044922 C 9.8144531 11.523395 9.6252266 11.032814 9.28125 10.664062 C 8.9377358 10.295807 8.4798698 10.092342 7.9941406 10.091797 L 7.9921875 10.091797 C 7.9593477 10.091841 7.9251171 10.091881 7.8925781 10.09375 L 4.7382812 8.0996094 C 4.6996796 8.0751558 4.6555202 8.0650504 4.6132812 8.0703125 z M 0.51757812 8.1367188 C 0.46787838 8.1223129 0.41382072 8.1287835 0.36914062 8.15625 C 0.32446053 8.1837165 0.29281332 8.2299238 0.27929688 8.2832031 C 0.094484939 9.013867 -7.4014868e-17 9.7705885 0 10.533203 C 0 10.663725 0.003726361 10.79472 0.009765625 10.933594 C 0.014602265 11.045169 0.099960776 11.132813 0.203125 11.132812 C 0.2061577 11.132812 0.20985792 11.132981 0.21289062 11.132812 L 2.5390625 11.017578 C 2.5904877 11.015056 2.6391873 10.989998 2.6738281 10.949219 C 2.7085212 10.908439 2.7270146 10.853957 2.7246094 10.798828 C 2.7205571 10.70519 2.71875 10.618405 2.71875 10.533203 C 2.71875 10.028157 2.7804081 9.5287432 2.9023438 9.046875 C 2.930344 8.9359441 2.869103 8.8211447 2.765625 8.7910156 L 0.51757812 8.1367188 z"/>
</svg>
